X: 7528
T: Coburg, The
R: mazurka
M: 3/4
K: Dmajor
|:A2|d2 d2 e2|f2 f2 ed|ce ge ce|d2 f2 A2|
d2 d2 e2|f2 f2 ed|ce ge ce|d4:|
|:A2|F2 F2 G2|A2 A2 GF|E2 EF GA|G2 F2 AG|
F2 F2 d2|BA GF ED|E2 E2 F2|D4:|
|:A2|d2 dc de|f2 a2 f2|ce ge ce|d2 f2 A2|
d2 d2 e2|f4 ed|ce ge ce|d4:|

